raw/symbols/st-matic.svg

<svg width="42" height="42" viewBox="0 0 42 42" fill="none" xmlns="http://www.w3.org/2000/svg">
<rect width="42" height="42" rx="21" fill="#F3F3F3"/>
<path d="M27.6867 16.5583C27.2115 16.287 26.6005 16.287 26.0574 16.5583L22.2559 18.7965L19.6762 20.2208L15.9426 22.4591C15.4674 22.7304 14.8564 22.7304 14.3133 22.4591L11.3943 20.6956C10.9191 20.4243 10.5796 19.8817 10.5796 19.2713V15.88C10.5796 15.3374 10.8512 14.7948 11.3943 14.4557L14.3133 12.7601C14.7885 12.4888 15.3995 12.4888 15.9426 12.7601L18.8616 14.5235C19.3368 14.7948 19.6762 15.3374 19.6762 15.9478V18.1861L22.2559 16.6939V14.3879C22.2559 13.8453 21.9843 13.3027 21.4413 12.9635L16.0104 9.77574C15.5352 9.50444 14.9243 9.50444 14.3812 9.77574L8.81462 13.0314C8.27154 13.3027 8 13.8453 8 14.3879V20.7634C8 21.3061 8.27154 21.8487 8.81462 22.1878L14.3133 25.3756C14.7885 25.6469 15.3995 25.6469 15.9426 25.3756L19.6762 23.2052L22.2559 21.713L25.9896 19.5426C26.4648 19.2713 27.0757 19.2713 27.6188 19.5426L30.5379 21.2382C31.0131 21.5095 31.3525 22.0521 31.3525 22.6626V26.0538C31.3525 26.5964 31.0809 27.139 30.5379 27.4782L27.6867 29.1738C27.2115 29.4451 26.6005 29.4451 26.0574 29.1738L23.1384 27.4782C22.6632 27.2069 22.3238 26.6643 22.3238 26.0538V23.8834L19.7441 25.3756V27.6138C19.7441 28.1564 20.0157 28.699 20.5587 29.0381L26.0574 32.2259C26.5326 32.4972 27.1436 32.4972 27.6867 32.2259L33.1854 29.0381C33.6606 28.7668 34 28.2242 34 27.6138V21.1704C34 20.6278 33.7285 20.0852 33.1854 19.7461L27.6867 16.5583Z" fill="#13B3FF"/>
</svg>

<svg xmlns="http://www.w3.org/2000/svg" width="42" height="42" fill="none"><rect width="42" height="42" fill="#F3F3F3" rx="21"/><path fill="#13B3FF" d="M27.687 16.558c-.476-.271-1.087-.271-1.63 0l-3.801 2.239-2.58 1.424-3.733 2.238c-.476.271-1.087.271-1.63 0l-2.919-1.763a1.653 1.653 0 0 1-.814-1.425V15.88c0-.543.271-1.085.814-1.424l2.92-1.696c.475-.271 1.085-.271 1.629 0l2.919 1.764c.475.27.814.813.814 1.424v2.238l2.58-1.492v-2.306c0-.543-.272-1.085-.815-1.425l-5.43-3.187c-.476-.272-1.087-.272-1.63 0L8.815 13.03c-.543.272-.815.814-.815 1.357v6.375c0 .543.272 1.086.815 1.425l5.498 3.188c.476.27 1.086.27 1.63 0l3.733-2.17 2.58-1.493 3.734-2.17c.475-.272 1.086-.272 1.629 0l2.919 1.695c.475.271.814.814.814 1.425v3.39c0 .543-.271 1.086-.814 1.425l-2.851 1.696c-.476.271-1.087.271-1.63 0l-2.919-1.696a1.653 1.653 0 0 1-.814-1.424v-2.17l-2.58 1.492v2.238c0 .542.272 1.085.815 1.424l5.498 3.188c.476.271 1.087.271 1.63 0l5.498-3.188c.476-.271.815-.814.815-1.424V21.17c0-.542-.272-1.085-.815-1.424l-5.498-3.188Z"/></svg>
